X:1
T:It Is Glory to Talk with Him
T:It Is Glory to Talk with Him
T:Albert Chistopher Fisher
T:Albert Chistopher Fisher, 1921
T:Public Domain Courtesy of the Cyber Hymnal™
T:Public Domain Courtesy of the Cyber Hymnal™
C:Albert Chistopher Fisher
Z:Public Domain
Z:Courtesy of the Cyber Hymnal™
%%score ( 1 2 ) ( 3 4 )
L:1/8
Q:1/4=100
M:4/4
K:Bb
V:1 treble 
V:2 treble 
V:3 bass 
V:4 bass 
V:1
 [DF][DB] | [Fd][Fd][=E^c][Fd] [G=e][Fd][F=c][FB] | [Ec][EG][EG][EG] [EG]2 [FA][FB] | %3
w: 1.~When the|cares of life op- press you And the|load is hard to bear; When your|
w: 2.~Tri- als|great will o- ver- take you In this|sin- ful world be- low; Je- sus|
w: 3.~He will|ne- ver tire of hear- ing When to|Him you pray or plead; You will|
w: 4.~All the|way from earth to glor- y With the|Sav- ior you may go; Tell- ing|
 [Ec][Ec][D=B][Ec] [Fd][Fc][FG][FA] | [=EB][EB][EA][EG] !fermata!F2 !fermata![DF][DB] | %5
w: trou- bles great dis- tress you And there’s|none who seems to care; Talk to|
w: ne- ver will for- sake you, If to|Him in faith you go; Storms of|
w: find His grace so cheer- ing, In the|try- ing hour of need; And your|
w: o’er and o’er the stor- y, Let- ting|hap- py prais- es flow; Tell it|
 [Fd][Fd][=E^c][Fd] [G=e][Fd][F=c][FB] | [Gc][EG][EG][EG] !fermata![Ge]2 [Gc][Gd] | %7
w: Je- sus, He will bless you And your|ev- ery bur- den share; It is|
w: life can ne- ver shake you, If His|keep- ing grace you know; It is|
w: sky will soon be clear- ing, For His|power is great in- deed; It is|
w: to the young and hoar- y, That His|love they all may know; It is|
 [Ff] [Fd]2 [Ge] [Fd]2 [Ec]2 | [DB]6 ||"^Refrain" [DF][DB] | [Fd] [Fd]2 [=E^c] [Fd]2 [G=e]2 | %11
w: glor- y to talk with|Him.|||
w: glor- y to talk with|Him.|||
w: glor- y to talk with|Him.|It is|glor- y to talk with|
w: glor- y to talk with|Him.|||
 [Fd] [Ec]2 [D=B] [Ec]2 [EF][EA] | [Ec] [Ec]2 [D=B] [Ec]2 [Fd]2 | [Ec] [DB]2 [EG] [DF]3 F | %14
w: |||
w: |||
w: Him ev- ery day; It is|glor- y to walk with|Him all the way; My|
w: |||
 [EG][E^F][EG][FA] [GB]2 [FA][EG] | [EG][DF][^C=E][DF] !fermata![Fd]2 [G^c][Gd] | %16
w: ||
w: ||
w: path is nev- er dim as I|walk and talk with Him, It is|
w: ||
 [Ff] [Fd]2 [Ge] [Fd]2 [Ec]2 | [DB]6 |] %18
w: ||
w: ||
w: glor- y to talk with|Him.|
w: ||
V:2
 x2 | x8 | x8 | x8 | x4 (F_E) x2 | x8 | x8 | x8 | x6 || x2 | x8 | x8 | x8 | x7 F | x8 | x8 | x8 | %17
 x6 |] %18
V:3
 [B,,B,][B,,B,] | [B,,B,][B,,B,][B,,B,][B,,B,] [B,,B,][B,,B,][C,A,][D,B,] | %2
 [E,G,][E,B,][E,B,][E,B,] [E,B,]2 [E,C][D,B,] | %3
 [F,A,][F,A,][F,^G,][F,A,] [F,B,][F,A,][F,B,][F,A,] | %4
 [C,G,][C,G,][C,C][C,B,] !fermata![F,A,]2 [B,,B,][B,,B,] | %5
 [B,,B,][B,,B,][B,,B,][B,,B,] [B,,B,][B,,B,][C,A,][D,B,] | %6
 [E,B,][E,B,][E,B,][E,B,] !fermata![C,C]2 [E,B,][E,B,] | [D,B,] [B,,B,]2 [E,B,] [F,B,]2 (A,F,) | %8
 [B,,F,]6 || [B,,B,][B,,B,] | [B,,B,] [B,,B,]2 [B,,B,] [B,,B,]2 [B,,B,]2 | %11
 [F,A,] [F,A,]2 [F,^G,] [F,A,]2 [F,A,][F,C] | [F,A,] [F,A,]2 [F,^G,] [F,A,]2 [F,A,]2 | %13
 [B,,B,] [B,,B,]2 [B,,B,] [B,,B,]3 [D,B,] | [E,B,][E,A,][E,B,][E,B,] [E,E]2 [E,B,][E,B,] | %15
 [B,,B,][B,,B,]B,[_A,B,] [G,=B,]2 [E,_B,][E,B,] | [D,B,] [B,,B,]2 [E,B,] [F,B,]2 (A,F,) | %17
 [B,,F,]6 |] %18
V:4
 x2 | x8 | x8 | x8 | x8 | x8 | x8 | x6 [F,,F,]2 | x6 || x2 | x8 | x8 | x8 | x8 | x8 | x2 B, x5 | %16
 x6 F,2 | x6 |] %18

